!! 00000] TT[WS
!!!OTL: Xiao taqing
!!!ARE: Asia, China, Shanxi Quwo
!! Ethnic Group: Han
!! WI, 238
!!!SCT: J0284
!!!YEM: Copyright 1995, estate of Helmut Schaffrath.
**kern
*ICvox
*Ivox
!! Mixed meters:  2/4; 3/4
*M3/4
*k[b-]
*F:
{8cc
16cc
16ff
16dd
16cc
16a
16g
=1
8cc
16cc
16ff
16dd
16cc
16a
16g
=2
8.f
16g
8ff
16dd
16cc
=3
16cc
16a
16g
16f
8g
8r}
=4
{8b-
8cc
8b-
8cc
=5
8a
8f
8g
16g
16g
=6
8a
8f
8g
16g
16g
=7
8a
8f
8g
16g
16g}
=8
{8a
8f
8g
16g
16g
=9
8.a
16cc
8a
8cc
=10
8a
8f
8g
16g
16g
=11
8f
8a
8g
16g
16g}
=12
{8a
8f
8g
16g
16g
=13
8a
8f
8g
16g
16g
=14
8.a
16a
8cc
8a
=15
8cc
8a
8cc
8a
=16
8.cc
16a
8.cc
16a
8g
8f}
=17
*M2/4
{8f
8d
8c
8d
=18
4cc
8cc
8e
=19
8.g
16a
8f
8d
=20
2c}
==
!!!AGN: Xiaodiao. Qingge, Sichun
!!!ONB: ESAC (Essen Associative Code) Database: CHINA
!!!AMT: irregular
!!!AIN: vox
!!!EED: Helmut Schaffrath
!!!EEV: 1.0
*-
